X: 1
P: The Kilts and Ghillies Waltzette
C: by Terry Traub 4-28-2005
C: 6 bar phrases of waltz for the Tweedside dance
R: Waltz
M: 3/4
L: 1/8
K: C
|: ED|"C"C2 c2 c2|"G"d2 ed cd|"C"e4 de|"F"f2 A2 A2|"G"d2 ed cB|"C"c4 :|
gf|"C"e2 g2 g2|"F"fa "C"ge fe|"G"d4 cd|"C"e2 g2 G2|"F"Af "G"ed cB |"C"c4 gf||
"C"e2 g2 g2|"F"fa "C"ge fe|"Dm"d4 de|"F"f2 A2 A2 |"G"d2 ed cB |"C"c4 |]
